public/icons/rain.svg

<?xml version="1.0" ?>
<svg xmlns="http://www.w3.org/2000/svg" width="100" height="100" viewBox="0 0 100 100">
  <path d="M63.943,64.941v-4.381c2.389,-1.383 4,-3.961 4,-6.92c0,-4.417 -3.582,-7.999 -8,-7.999c-1.6,0 -3.082,0.48 -4.333,1.291c-1.231,-5.317 -5.974,-9.29 -11.665,-9.29c-6.626,0 -11.998,5.372 -11.998,11.998c0,3.55 1.551,6.728 4,8.925v4.916c-4.777,-2.768 -8,-7.922 -8,-13.841c0,-8.835 7.163,-15.997 15.998,-15.997c6.004,0 11.229,3.311 13.965,8.203c0.664,-0.113 1.338,-0.205 2.033,-0.205c6.627,0 11.999,5.372 11.999,11.999C71.942,58.863 68.601,63.293 63.943,64.941zM41.946,53.641c1.104,0 1.999,0.896 1.999,2v15.998c0,1.105 -0.895,2 -1.999,2s-2,-0.895 -2,-2V55.641C39.946,54.537 40.842,53.641 41.946,53.641zM49.945,57.641c1.104,0 2,0.895 2,2v15.998c0,1.104 -0.896,2 -2,2s-2,-0.896 -2,-2V59.641C47.945,58.535 48.841,57.641 49.945,57.641zM57.944,53.641c1.104,0 1.999,0.896 1.999,2v15.998c0,1.105 -0.895,2 -1.999,2s-2,-0.895 -2,-2V55.641C55.944,54.537 56.84,53.641 57.944,53.641z" fill="#FF000000"/>
</svg>

<svg
    xmlns="http://www.w3.org/2000/svg"
    viewBox="0 0 100 100"
    id="vector">
    <path
        id="path"
        d="M 63.943 64.941 L 63.943 60.56 C 66.332 59.177 67.943 56.599 67.943 53.64 C 67.943 49.223 64.361 45.641 59.943 45.641 C 58.343 45.641 56.861 46.121 55.61 46.932 C 54.379 41.615 49.636 37.642 43.945 37.642 C 37.319 37.642 31.947 43.014 31.947 49.64 C 31.947 53.19 33.498 56.368 35.947 58.565 L 35.947 63.481 C 31.17 60.713 27.947 55.559 27.947 49.64 C 27.947 40.805 35.11 33.643 43.945 33.643 C 49.949 33.643 55.174 36.954 57.91 41.846 C 58.574 41.733 59.248 41.641 59.943 41.641 C 66.57 41.641 71.942 47.013 71.942 53.64 C 71.942 58.863 68.601 63.293 63.943 64.941 Z M 41.946 53.641 C 43.05 53.641 43.945 54.537 43.945 55.641 L 43.945 71.639 C 43.945 72.744 43.05 73.639 41.946 73.639 C 40.842 73.639 39.946 72.744 39.946 71.639 L 39.946 55.641 C 39.946 54.537 40.842 53.641 41.946 53.641 Z M 49.945 57.641 C 51.049 57.641 51.945 58.536 51.945 59.641 L 51.945 75.639 C 51.945 76.743 51.049 77.639 49.945 77.639 C 48.841 77.639 47.945 76.743 47.945 75.639 L 47.945 59.641 C 47.945 58.535 48.841 57.641 49.945 57.641 Z M 57.944 53.641 C 59.048 53.641 59.943 54.537 59.943 55.641 L 59.943 71.639 C 59.943 72.744 59.048 73.639 57.944 73.639 C 56.84 73.639 55.944 72.744 55.944 71.639 L 55.944 55.641 C 55.944 54.537 56.84 53.641 57.944 53.641 Z"
        fill="#ff000000"
        stroke-width="1"/>
</svg>
